X: 1092
T: Ash-wednseday.
%R: minuet, waltz
B: Henry Playford "Apollo's Banquet", London 1687 (5th Edition)
F: https://archive.org/details/apollosbanquetco01rugg
Z: 2017 John Chambers <jc:trillian.mit.edu>
N: In bar 5, either the f or g should probably be shortened.
M: 3/2
L: 1/8
K: Bb
% - - - - - - - - - -
|:\
B4b2 (ag)f2(ed) | c6 d2e4 |\
f2(ed)c2 B2A2(GF) | G2A4 d2c2B2 |\
f4 g4 a3gf2 | g2b2d2 g2c2f2 |
B2(gf)d2 f2g2a2 | g6 f2f4 ::\
c4f2 (ed)e2(dc) | d2(cB)(AB) c2F2(ba) |\
g2(fe)d2 (cB)(cd)(ef) |
g2G4 c2A2(GF) |\
G2ABB2 cdc2B2 | d2f4 b2g2(ag) |\
(fg)(fd)(cd) (cB)(cB)(cd) | G2B2(cB) (cd)B4 |]
% - - - - - - - - - -

%%sep 1 1 500
%%sep 1 1 500

